X: 3802
T: Black Bear, The
R: hornpipe
M: 4/4
K: Dmajor
A/>B/|dd f/>d/a/>f/|dd f/>d/a/>f/|eB Be/>d/|c/<d/B/>c/ A/>B/c/<A/|
dd f/>d/a/>f/|dd f/>d/a/>f/|ee e/>g/f/>e/|df d:|
e|AA/>B/ dd/>e/|gf/>e/ f/<a/f/>d/|AA/>B/ dd/>e/|gf/>e/ f/<a/f/>d/|
a/>A/A/<A/ c/<A/A/<A/|d/>B/B/<B/ e/>c/c/<c/|d/>f/d/>f/ e/>g/f/>g/|aa a/>g/f/>e/|
dd f/>d/a/>f/|dd f/>d/a/>f/|eB Be/>d/|c/<d/B/>c/ A/>B/c/<A/|
dd f/>d/a/>f/|dd f/>d/a/>f/|ee e/>g/f/>e/|df d||

